src/assets/icons/internet-communication,fancy,phone.svg

<svg width="48" height="48" viewBox="0 0 48 48" fill="none" xmlns="http://www.w3.org/2000/svg">
<rect opacity="0.2" x="5" y="10" width="38" height="33" rx="4" fill="black"/>
<path d="M32.8 15.4962C26.2795 13.3508 21.7205 13.3508 15.2 15.4962C10.8 16.944 3.46667 18.3918 3.46667 18.3918L2.56238 14.8212C2.21407 13.446 2.60192 11.9664 3.71859 11.0913C14.0828 2.96957 33.9172 2.96957 44.2814 11.0913C45.3981 11.9664 45.7859 13.446 45.4376 14.8213L44.5333 18.3918C44.5333 18.3918 37.2 16.944 32.8 15.4962Z" fill="black"/>
<path d="M3.4668 18.3916L15.2001 15.4961L15.6294 16.7673C16.1151 18.2055 16.3579 18.9247 16.0438 19.4976C15.7297 20.0706 14.993 20.2524 13.5196 20.616L7.62962 22.0695C6.35051 22.3852 5.71095 22.543 5.19407 22.2595C4.67718 21.9759 4.46636 21.3516 4.04473 20.1031L3.4668 18.3916Z" fill="black"/>
<path d="M44.5332 18.3916L32.7999 15.4961L32.3706 16.7673C31.8849 18.2055 31.6421 18.9247 31.9562 19.4976C32.2703 20.0706 33.007 20.2524 34.4804 20.616L40.3704 22.0695C41.6495 22.3852 42.289 22.543 42.8059 22.2595C43.3228 21.9759 43.5336 21.3516 43.9553 20.1031L44.5332 18.3916Z" fill="black"/>
<circle opacity="0.6" cx="13" cy="28" r="3" fill="black"/>
<circle opacity="0.6" cx="13" cy="37" r="3" fill="black"/>
<circle opacity="0.6" cx="35" cy="28" r="3" fill="black"/>
<circle opacity="0.6" cx="35" cy="37" r="3" fill="black"/>
<circle opacity="0.6" cx="24" cy="28" r="3" fill="black"/>
<circle opacity="0.6" cx="24" cy="37" r="3" fill="black"/>
</svg>

<svg xmlns="http://www.w3.org/2000/svg" width="48" height="48" fill="none" viewBox="0 0 48 48">
  <rect width="38" height="33" x="5" y="10" fill="#000" opacity=".2" rx="4"/>
  <path fill="#000" d="M32.8 15.496c-6.52-2.145-11.08-2.145-17.6 0-4.4 1.448-11.733 2.896-11.733 2.896l-.905-3.57c-.348-1.376.04-2.856 1.157-3.73 10.364-8.122 30.198-8.122 40.562 0 1.117.874 1.505 2.354 1.157 3.73l-.905 3.57S37.2 16.944 32.8 15.496z"/>
  <path fill="#000" d="M3.467 18.392L15.2 15.496l.43 1.271c.485 1.439.728 2.158.414 2.73-.314.574-1.051.755-2.524 1.119L7.63 22.07c-1.28.315-1.919.473-2.436.19-.517-.284-.728-.908-1.15-2.157l-.577-1.711zM44.533 18.392L32.8 15.496l-.43 1.271c-.485 1.439-.728 2.158-.414 2.73.314.574 1.051.755 2.524 1.119l5.89 1.454c1.28.315 1.919.473 2.436.19.517-.284.728-.908 1.15-2.157l.577-1.711z"/>
  <circle cx="13" cy="28" r="3" fill="#000" opacity=".6"/>
  <circle cx="13" cy="37" r="3" fill="#000" opacity=".6"/>
  <circle cx="35" cy="28" r="3" fill="#000" opacity=".6"/>
  <circle cx="35" cy="37" r="3" fill="#000" opacity=".6"/>
  <circle cx="24" cy="28" r="3" fill="#000" opacity=".6"/>
  <circle cx="24" cy="37" r="3" fill="#000" opacity=".6"/>
</svg>
